src/images/decor/plane_2.svg

<svg width="578" height="553" viewBox="0 0 578 553" fill="none" xmlns="http://www.w3.org/2000/svg">
<path d="M95.8379 50.0292L0.775737 29.9908L38.9098 103.866L55.7078 85.3013L70.6746 90.6863L77.5492 88.1657L80.1586 61.4311L95.8379 50.0292Z" fill="#59A6F5"/>
<g opacity="0.5">
<path opacity="0.5" d="M77.0133 87.43L0.775623 29.9905L80.1585 61.4308L77.0133 87.43Z" fill="black"/>
</g>
<path d="M0.32216 29.0009C0.217657 29.1408 11.927 41.5012 26.5398 56.6568C41.1526 71.8124 53.0932 84.0085 53.1977 83.8686C53.3022 83.7287 41.5928 71.3683 26.98 56.2127C12.3672 41.0571 0.448887 28.9765 0.32216 29.0009Z" fill="#263238"/>
<path d="M31.4655 37.8605C31.361 38.0004 44.4227 40.9971 60.3456 44.5212C76.3953 48.0209 89.3903 50.671 89.4948 50.5311C89.5993 50.3912 76.5377 47.3946 60.6147 43.8705C44.565 40.3708 31.57 37.7207 31.4655 37.8605Z" fill="white"/>
<path d="M24.6844 36.7702C24.5799 36.9101 25.2802 37.1347 25.9805 37.3593C26.8076 37.5595 27.4635 37.5531 27.419 37.3221C27.5235 37.1822 26.8232 36.9576 26.1229 36.733C25.2958 36.5328 24.6399 36.5392 24.6844 36.7702Z" fill="white"/>
<path d="M33.0357 65.8278C32.9089 65.8521 33.9138 66.9764 35.4544 68.836C36.9951 70.6957 39.2805 73.0109 41.886 75.6239C44.4916 78.2369 47.0082 80.3879 48.8846 81.9433C50.7609 83.4988 51.9748 84.3433 52.1015 84.3189C52.2283 84.2945 51.0967 83.1946 49.2203 81.6392C47.4707 80.0593 44.9318 77.7928 42.3485 75.2954C39.7652 72.7979 37.4575 70.3671 35.6857 68.6717C34.145 66.8121 33.1402 65.6879 33.0357 65.8278Z" fill="white"/>
<path d="M101 58.4153C131 39.418 197.113 18.4372 212 13.918C226.887 9.39871 270 1.41808 302.5 1.41808C335 1.41808 369.932 0.797917 378 1.41851C393.562 2.61556 417.559 5.26734 437 9.91779C451.582 13.4059 478.57 21.7709 491.5 27.9149C511.5 37.4185 524.096 47.333 537.5 58.4153C546.141 65.5596 564.624 94.5957 568 104.919C573.928 123.048 574.363 125.856 576.5 144.915C577.79 156.422 576.586 182.362 576.5 193.915C576.375 210.773 569.396 232.783 564 248.915C558.604 265.048 551.656 279.495 543.5 291.415C535.655 302.881 524.956 309.713 513.556 318.026C504.397 324.704 493.757 328.093 483 331.137C475.556 333.244 424.657 341.465 420.333 331.137C405 310.415 454.667 291.415 483 291.415C500.167 291.415 517.599 294.343 530.279 300.633C544.586 307.729 559.894 323.3 564 339.415C570.667 365.582 571.98 393.622 567 416.915C559.847 450.371 538.125 472.175 510.111 491.359C495.971 501.042 485.571 509.346 470.5 517.415C455.912 525.226 436.367 532.086 420.333 536.693C390.657 545.221 315.5 554.915 272.222 551.137" stroke="black" stroke-linecap="round" stroke-linejoin="round" stroke-dasharray="10 10 10 10 10 10"/>
</svg>

<svg width="578" height="553" viewBox="0 0 578 553" fill="none" xmlns="http://www.w3.org/2000/svg"><path d="M95.838 50.03L.776 29.99l38.134 73.876 16.798-18.565 14.967 5.385 6.874-2.52 2.61-26.735L95.838 50.03z" fill="#59A6F5"/><path opacity=".5" d="M77.013 87.43L.776 29.99l79.383 31.44-3.146 26z" fill="#000"/><path d="M.322 29c-.104.14 11.605 12.501 26.218 27.657 14.613 15.155 26.553 27.352 26.658 27.212.104-.14-11.605-12.5-26.218-27.656C12.367 41.057.449 28.977.322 29z" fill="#263238"/><path d="M31.465 37.86c-.104.14 12.958 3.137 28.88 6.661 16.05 3.5 29.045 6.15 29.15 6.01.104-.14-12.957-3.136-28.88-6.66-16.05-3.5-29.045-6.15-29.15-6.01zM24.684 36.77c-.104.14.596.365 1.296.59.828.2 1.483.193 1.439-.038.104-.14-.596-.364-1.296-.589-.827-.2-1.483-.194-1.439.037zM33.036 65.828c-.127.024.878 1.148 2.418 3.008 1.541 1.86 3.827 4.175 6.432 6.788 2.606 2.613 5.122 4.764 6.999 6.32 1.876 1.555 3.09 2.4 3.217 2.375.126-.025-1.005-1.124-2.882-2.68-1.75-1.58-4.288-3.846-6.871-6.344-2.584-2.497-4.891-4.928-6.663-6.623-1.541-1.86-2.546-2.984-2.65-2.844z" fill="#fff"/><path d="M101 58.415c30-18.997 96.113-39.978 111-44.497 14.887-4.52 58-12.5 90.5-12.5s67.432-.62 75.5 0c15.562 1.198 39.559 3.85 59 8.5 14.582 3.488 41.57 11.853 54.5 17.997 20 9.504 32.596 19.418 46 30.5 8.641 7.145 27.124 36.18 30.5 46.504 5.928 18.129 6.363 20.937 8.5 39.996 1.29 11.507.086 37.447 0 49-.125 16.858-7.104 38.868-12.5 55-5.396 16.133-12.344 30.58-20.5 42.5-7.845 11.466-18.544 18.298-29.944 26.611-9.159 6.678-19.799 10.067-30.556 13.111-7.444 2.107-58.343 10.328-62.667 0C405 310.415 454.667 291.415 483 291.415c17.167 0 34.599 2.928 47.279 9.218 14.307 7.096 29.615 22.667 33.721 38.782 6.667 26.167 7.98 54.207 3 77.5-7.153 33.456-28.875 55.26-56.889 74.444-14.14 9.683-24.54 17.987-39.611 26.056-14.588 7.811-34.133 14.671-50.167 19.278-29.676 8.528-104.833 18.222-148.111 14.444" stroke="#000" stroke-linecap="round" stroke-linejoin="round" stroke-dasharray="10 10 10 10 10 10"/></svg>
